assets/Other/icon-stake.svg

<?xml version="1.0" encoding="UTF-8"?>
<svg viewBox="0 0 18 18" version="1.1" xmlns="http://www.w3.org/2000/svg" xmlns:xlink="http://www.w3.org/1999/xlink">
    <title>icon-stake</title>
    <g id="icon-stake" stroke="none" stroke-width="1" fill-rule="evenodd">
        <path d="M12.2512338,5.2014576 C11.5169105,4.57290738 10.6530662,4.19446179 9.76311542,4.05795829 C8.11064354,3.80444696 6.3685863,4.38520241 5.20151454,5.74875334 C3.40589498,7.84666409 3.65090551,11.002907 5.74880816,12.7985673 C6.48313142,13.4270838 7.34694194,13.8054956 8.23689277,13.9420329 C9.88933092,14.1955779 11.6314556,13.614755 12.7984936,12.2511704 C14.5941132,10.1532933 14.3490689,6.99705037 12.2512338,5.2014576 Z M13.2203138,10.4504507 L11.6922023,9.92366253 C11.8980192,9.32317529 11.8955233,8.67205999 11.6926745,8.07784645 L13.219167,7.55250866 C13.3398172,7.90508368 13.4168889,8.27529926 13.4465033,8.65684796 C13.4944666,9.27440235 13.4156409,9.88200653 13.2203138,10.4504507 Z M12.3627095,6.07340029 L11.146123,7.13021465 C11.0560991,7.02717087 10.9579465,6.92915278 10.850923,6.83754332 C10.4641477,6.50652148 10.0140961,6.29803911 9.54771933,6.20707051 L9.85448843,4.63051745 C10.6076664,4.77656642 11.3119368,5.11264769 11.899672,5.61572398 C12.0662953,5.75833253 12.2208098,5.91139724 12.3627095,6.07340029 Z M7.48260168,4.80891306 C7.69941441,4.73082915 7.9217925,4.67031833 8.14740861,4.62717823 L8.45390787,6.20717169 C7.85389517,6.32411206 7.28740951,6.63388427 6.85536933,7.12937141 L5.63756852,6.07029717 C6.13622431,5.49810902 6.77276598,5.06475172 7.48260168,4.80891306 Z M4.77996421,7.54954046 L6.30780588,8.07629489 C6.10198894,8.67678213 6.10448492,9.32782997 6.30729994,9.92207724 L4.77952573,10.4478535 C4.65938153,10.0956832 4.58264709,9.72604107 4.55310011,9.34530188 C4.50513688,8.72720781 4.58419864,8.11869294 4.77996421,7.54954046 Z M5.63476898,11.9286484 L6.85391897,10.869709 C6.9439428,10.9727866 7.04212915,11.0708721 7.14918634,11.1624816 C7.5359279,11.4935034 7.98594586,11.7019183 8.45228886,11.7929206 L8.14390075,13.3781085 C7.39089138,13.2314524 6.68729562,12.8916608 6.0997628,12.3887195 C5.93229622,12.2454363 5.7771746,12.0916296 5.63476898,11.9286484 Z M10.5166307,13.195834 C10.3004589,13.2737155 10.0786204,13.3344624 9.85357774,13.3780747 L9.54606659,11.7927857 C10.1460793,11.6758454 10.7125987,11.3660731 11.1446389,10.8705523 L12.3629793,11.9299638 C11.8641549,12.5027591 11.22677,12.9398941 10.5166307,13.195834 Z" fill-rule="nonzero"></path>
    </g>
</svg>

<svg xmlns="http://www.w3.org/2000/svg" viewBox="0 0 18 18"><title>icon-stake</title><path fill-rule="nonzero" d="M12.251 5.201a4.997 4.997 0 0 0-7.05.547 5 5 0 1 0 7.05-.547m.97 5.25-1.529-.527c.206-.6.204-1.252 0-1.846l1.527-.525a4.48 4.48 0 0 1 .001 2.897m-.858-4.378L11.146 7.13a2.832 2.832 0 0 0-1.598-.923l.306-1.576a4.44 4.44 0 0 1 2.509 1.442M7.483 4.81q.325-.117.664-.182l.307 1.58c-.6.117-1.167.427-1.599.922L5.638 6.07A4.45 4.45 0 0 1 7.483 4.81M4.78 7.549l1.528.527a2.86 2.86 0 0 0 0 1.846l-1.528.526a4.5 4.5 0 0 1 0-2.898m.855 4.38 1.219-1.06q.135.156.295.293c.387.332.837.54 1.303.63l-.308 1.586a4.45 4.45 0 0 1-2.51-1.45m4.882 1.267a4.5 4.5 0 0 1-.663.182l-.308-1.585a2.83 2.83 0 0 0 1.599-.922l1.218 1.059a4.46 4.46 0 0 1-1.846 1.266"/></svg>
